X: 41252
T: Trying Not To Die
R: slip jig
M: 9/8
K: Dmajor
|:fed cAF A2d|fed dfa gfe|fed cAF A2G|~F3 GBd e2d|
fed cAF A2d|fed dfa gfe|fed cAF A2G|FAd GBd e3:|
Fcf cFc B2A|B2b baf ~a3|d3 dcd a2d|c3 cBc a3|
Fcf cFc B2A|B2b baf ~a3|f3 efa efa|f3 fec fec|
f3 ecF B2A|B2b baf a3|~d3 dcd a2d|~c3 cBc a3|
Fcf cFc B2A|B2b baf ~a3|~f3 efa efa|~f3 ~g3 agf||

